X:0223
T:A Bonny Lass to marry me.
M:C
L:1/8
Q:1/2=104
I: || ||
Z:Jack Campin * www.campin.me.uk * 2009
K:G
D|G2BG AGBG|DGBG  AGEA|G2    BG cBAB|GAGE D/D/D D||
e|dgdB AGAB|dgBg TAGE2|de/f/ gB AGAB|GAGE D/D/D D|]
<end>
<start>
